Adwaita++-Dark/actions/16/appointment-soon.svg

<svg height="16" viewBox="0 0 16 16" width="16" xmlns="http://www.w3.org/2000/svg">
  <path d="m2 1c-1 0-1 1-1 1v12c0 1 1 1 1 1h6.7617188a4.5 4.5 0 0 1 -.7285157-2h-5.0332031v-7h10v2.03125a4.5 4.5 0 0 1 2 .7285156v-6.7597656c0-1-1-1-1-1zm10.5 8a3.5 3.5 0 0 0 -3.5 3.5 3.5 3.5 0 0 0 3.5 3.5 3.5 3.5 0 0 0 3.5-3.5 3.5 3.5 0 0 0 -3.5-3.5zm-.5 1h1v2h2v1h-2-1v-1z" fill="#e6ddff"/>
</svg>

<svg xmlns="http://www.w3.org/2000/svg" width="16" height="16" version="1.1" viewBox="0 0 16 16">
 <defs>
  <style id="current-color-scheme" type="text/css">
   .ColorScheme-Text { color:#E6DDFF; } .ColorScheme-Highlight { color:#4285f4; }
  </style>
 </defs>
 <path style="fill:currentColor" class="ColorScheme-Text" d="M 2 1 C 1 1 1 2 1 2 L 1 14 C 1 15 2 15 2 15 L 8.7617188 15 A 4.5 4.5 0 0 1 8.0332031 13 L 3 13 L 3 6 L 13 6 L 13 8.03125 A 4.5 4.5 0 0 1 15 8.7597656 L 15 2 C 15 1 14 1 14 1 L 2 1 z M 12.5 9 A 3.5 3.5 0 0 0 9 12.5 A 3.5 3.5 0 0 0 12.5 16 A 3.5 3.5 0 0 0 16 12.5 A 3.5 3.5 0 0 0 12.5 9 z M 12 10 L 13 10 L 13 12 L 15 12 L 15 13 L 13 13 L 12 13 L 12 12 L 12 10 z"/>
</svg>
